usr/share/icons/biglinux-icons-material/24/actions/draw-halfcircle3.svg

<svg xmlns="http://www.w3.org/2000/svg" viewBox="0 0 24 24"><path d="M12 4c-4.432 0-8 3.568-8 8v1h16v-1c0-4.432-3.568-8-8-8zm0 1c3.878 0 7 3.122 7 7H5c0-3.878 3.122-7 7-7z" style="fill:currentColor;fill-opacity:1;stroke:none;color:#dedede"/></svg>

<svg xmlns="http://www.w3.org/2000/svg" viewBox="0 0 24 24">
  <defs id="defs3051">
    <style type="text/css" id="current-color-scheme">
      .ColorScheme-Text {
        color:#dedede;
      }
      </style>
  </defs>
 <path style="fill:currentColor;fill-opacity:1;stroke:none" 
     d="M 12 4 C 7.568 4 4 7.568 4 12 L 4 13 L 20 13 L 20 12 C 20 7.568 16.432 4 12 4 z M 12 5 C 15.878 5 19 8.122 19 12 L 5 12 C 5 8.122 8.122 5 12 5 z "
     class="ColorScheme-Text"
     />
</svg>
